;FLAVOR:Marlin
;TIME:8297
;Filament used: 7.74058m
;Layer height: 0.2
;MINX:88.085
;MINY:58.315
;MINZ:0.3
;MAXX:187.632
;MAXY:154.292
;MAXZ:16.3
;Generated with Cura_SteamEngine 4.10.0
M140 S60
M105
M190 S60
M104 S210
M105
M109 S210
M82 ;absolute extrusion mode
G21 ;metric values
G90 ;absolute positioning
M82 ;set extruder to absolute mode
M107 ;start with the fan off
G28 X0 Y0 ;move X/Y to min endstops
G28 Z0 ;move Z to min endstops
G1 Z15.0 F60 ;move the platform down 15mm
G92 E0 ;zero the extruded length
G1 F200 E3 ;extrude 3mm of feed stock
G92 E0 ;zero the extruded length again
G1 F60
M117 Printing...
G5
G92 E0
G92 E0
G1 F1200 E-3
;LAYER_COUNT:82
;LAYER:0
M106 S25.5
M204 S1000
M205 X18.18 Y18.18
G0 F5142.9 X89.029 Y86.767 Z0.3
M204 S334
M205 X10 Y10
;TYPE:SKIRT
G1 F1500 E0.04158
G1 F6000 X89.409 Y86.478 E0.07254
G1 X89.832 Y86.255 E0.10355
G1 X90.286 Y86.107 E0.13452
G1 X90.861 Y86.031 E0.17214
G1 X91.357 Y85.968 E0.20457
G1 X91.762 Y85.822 E0.23249
G1 X92.395 Y85.545 E0.2773
G1 X92.481 Y85.526 E0.28302
G1 X92.661 Y85.021 E0.31779
G1 X92.865 Y84.566 E0.35013
G1 X92.97 Y84.015 E0.38651
G1 X93.03 Y83.431 E0.42458
G1 X93.164 Y82.973 E0.45553
G1 X93.373 Y82.543 E0.48654
G1 X93.65 Y82.154 E0.51751
G1 X93.989 Y81.816 E0.54856
G1 X94.379 Y81.54 E0.57955
G1 X94.809 Y81.332 E0.61053
G1 X95.268 Y81.199 E0.64152
G1 X95.832 Y81.143 E0.67828
G1 X114.128 Y81.143 E1.86491
G1 X114.604 Y81.183 E1.89589
G1 X115.067 Y81.302 E1.9269
G1 X115.504 Y81.496 E1.95791
G1 X115.902 Y81.76 E1.98888
G1 X116.251 Y82.087 E2.0199
G1 X116.54 Y82.467 E2.05086
G1 X116.763 Y82.89 E2.08188
G1 X116.911 Y83.344 E2.11285
G1 X116.987 Y83.912 E2.15001
G1 X117.051 Y84.422 E2.18335
G1 X117.292 Y85.01 E2.22457
G1 X117.492 Y85.54 E2.26131
G1 X118.002 Y85.722 E2.29643
G1 X118.455 Y85.925 E2.32862
G1 X118.307 Y85.623 E2.35044
G1 X118.172 Y85.164 E2.38147
G1 X118.113 Y84.587 E2.41908
G1 X118.113 Y66.29 E3.60578
G1 X118.153 Y65.814 E3.63676
G1 X118.272 Y65.351 E3.66776
G1 X118.466 Y64.914 E3.69877
G1 X118.73 Y64.516 E3.72975
G1 X119.057 Y64.167 E3.76077
G1 X119.437 Y63.878 E3.79173
G1 X119.86 Y63.655 E3.82274
G1 X120.314 Y63.507 E3.85371
G1 X120.89 Y63.431 E3.8914
G1 X121.392 Y63.367 E3.92422
G1 X121.786 Y63.224 E3.9514
G1 X122.414 Y62.947 E3.99592
G1 X122.51 Y62.925 E4.00231
G1 X122.693 Y62.414 E4.03751
G1 X122.895 Y61.962 E4.06962
G1 X122.998 Y61.431 E4.1047
G1 X123.055 Y60.845 E4.14289
G1 X123.187 Y60.386 E4.17386
G1 X123.394 Y59.955 E4.20487
G1 X123.669 Y59.564 E4.23588
G1 X124.006 Y59.225 E4.26688
G1 X124.395 Y58.947 E4.29789
G1 X124.824 Y58.737 E4.32887
G1 X125.283 Y58.602 E4.3599
G1 X125.86 Y58.543 E4.39751
G1 X144.156 Y58.543 E5.58414
G1 X144.632 Y58.583 E5.61512
G1 X145.095 Y58.702 E5.64613
G1 X145.532 Y58.896 E5.67714
G1 X145.93 Y59.16 E5.70811
G1 X146.279 Y59.487 E5.73913
G1 X146.568 Y59.867 E5.7701
G1 X146.791 Y60.29 E5.80111
G1 X146.939 Y60.744 E5.83208
G1 X147.014 Y61.299 E5.8684
G1 X147.081 Y61.826 E5.90286
G1 X147.224 Y62.218 E5.92992
G1 X147.502 Y62.854 E5.97494
G1 X147.519 Y62.932 E5.98012
G1 X148.039 Y63.126 E6.01611
G1 X148.489 Y63.327 E6.04808
G1 X149.012 Y63.428 E6.08262
G1 X149.559 Y63.48 E6.11826
G1 X150.114 Y63.279 E6.15655
G1 X150.69 Y63.203 E6.19423
G1 X151.18 Y63.14 E6.22627
G1 X151.589 Y62.995 E6.25441
G1 X152.216 Y62.718 E6.29887
G1 X152.31 Y62.697 E6.30512
G1 X152.491 Y62.189 E6.34009
G1 X152.697 Y61.729 E6.37278
G1 X152.798 Y61.201 E6.40765
G1 X152.855 Y60.617 E6.4457
G1 X152.987 Y60.158 E6.47668
G1 X153.194 Y59.727 E6.50769
G1 X153.469 Y59.336 E6.53869
G1 X153.806 Y58.997 E6.5697
G1 X154.195 Y58.719 E6.60071
G1 X154.624 Y58.509 E6.63169
G1 X155.083 Y58.374 E6.66272
G1 X155.66 Y58.315 E6.70033
G1 X173.956 Y58.315 E7.88696
G1 X174.432 Y58.355 E7.91794
G1 X174.895 Y58.474 E7.94895
G1 X175.332 Y58.668 E7.97996
G1 X175.73 Y58.932 E8.01093
G1 X176.079 Y59.259 E8.04195
G1 X176.368 Y59.639 E8.07292
G1 X176.591 Y60.062 E8.10393
G1 X176.739 Y60.516 E8.1349
G1 X176.814 Y61.071 E8.17122
G1 X176.884 Y61.608 E8.20635
G1 X177.119 Y62.177 E8.24627
G1 X177.319 Y62.703 E8.28277
G1 X177.838 Y62.897 E8.31871
G1 X178.293 Y63.1 E8.35102
G1 X178.812 Y63.2 E8.3853
G1 X179.402 Y63.257 E8.42374
G1 X179.861 Y63.389 E8.45472
G1 X180.292 Y63.596 E8.48573
G1 X180.682 Y63.872 E8.51672
G1 X181.021 Y64.209 E8.54772
G1 X181.299 Y64.597 E8.57868
G1 X181.509 Y65.027 E8.60971
G1 X181.644 Y65.485 E8.64068
G1 X181.703 Y66.062 E8.6783
G1 X181.704 Y84.358 E9.86493
G1 X181.664 Y84.834 E9.89591
G1 X181.545 Y85.297 E9.92691
G1 X181.351 Y85.734 E9.95792
G1 X181.087 Y86.132 E9.9889
G1 X180.761 Y86.481 E10.01987
G1 X180.38 Y86.77 E10.05089
G1 X179.957 Y86.992 E10.08187
G1 X179.503 Y87.141 E10.11286
G1 X178.927 Y87.217 E10.15054
G1 X178.421 Y87.283 E10.18364
G1 X178.026 Y87.426 E10.21089
G1 X177.398 Y87.702 E10.25538
G1 X177.308 Y87.722 E10.26136
G1 X177.126 Y88.231 E10.29642
G1 X176.92 Y88.692 E10.32916
G1 X176.818 Y89.234 E10.36493
G1 X176.758 Y89.817 E10.40294
G1 X176.531 Y90.466 E10.44754
G1 X176.591 Y91.01 E10.48303
G1 X176.689 Y91.523 E10.51691
G1 X177.069 Y92.411 E10.57955
G1 X177.09 Y92.503 E10.58567
G1 X177.611 Y92.698 E10.62175
G1 X178.054 Y92.896 E10.65322
G1 X178.585 Y93 E10.68832
G1 X179.173 Y93.057 E10.72663
G1 X179.632 Y93.189 E10.75761
G1 X180.063 Y93.396 E10.78862
G1 X180.454 Y93.671 E10.81962
G1 X180.793 Y94.008 E10.85062
G1 X181.071 Y94.397 E10.88163
G1 X181.281 Y94.826 E10.91261
G1 X181.416 Y95.285 E10.94364
G1 X181.475 Y95.862 E10.98126
G1 X181.476 Y114.158 E12.16789
G1 X181.436 Y114.634 E12.19887
G1 X181.317 Y115.097 E12.22987
G1 X181.123 Y115.534 E12.26088
G1 X180.859 Y115.932 E12.29186
G1 X180.533 Y116.281 E12.32283
G1 X180.152 Y116.57 E12.35385
G1 X179.729 Y116.792 E12.38483
G1 X179.275 Y116.941 E12.41582
G1 X178.699 Y117.017 E12.45351
G1 X178.208 Y117.08 E12.48561
G1 X177.802 Y117.224 E12.51355
G1 X177.174 Y117.501 E12.55807
G1 X177.078 Y117.523 E12.56445
G1 X176.899 Y118.024 E12.59896
G1 X176.692 Y118.49 E12.63203
G1 X176.591 Y119.007 E12.6662
G1 X176.533 Y119.603 E12.70503
G1 X176.401 Y120.062 E12.73601
G1 X176.188 Y120.502 E12.76771
G1 X179.884 Y120.502 E13.00743
G1 X180.36 Y120.542 E13.03841
G1 X180.823 Y120.661 E13.06941
G1 X181.26 Y120.855 E13.10042
G1 X181.658 Y121.119 E13.1314
G1 X182.007 Y121.446 E13.16242
G1 X182.296 Y121.826 E13.19338
G1 X182.519 Y122.249 E13.22439
G1 X182.667 Y122.703 E13.25536
G1 X182.743 Y123.27 E13.29247
G1 X182.81 Y123.79 E13.32647
G1 X183.046 Y124.364 E13.36672
G1 X183.246 Y124.89 E13.40322
G1 X183.767 Y125.085 E13.4393
G1 X184.21 Y125.283 E13.47077
G1 X184.757 Y125.387 E13.50689
G1 X185.343 Y125.447 E13.54509
G1 X185.801 Y125.581 E13.57604
G1 X186.231 Y125.79 E13.60705
G1 X186.62 Y126.067 E13.63802
G1 X186.958 Y126.406 E13.66907
G1 X187.234 Y126.796 E13.70006
G1 X187.442 Y127.226 E13.73104
G1 X187.575 Y127.685 E13.76203
G1 X187.631 Y128.249 E13.79879
G1 X187.632 Y146.545 E14.98542
G1 X187.592 Y147.021 E15.0164
G1 X187.473 Y147.484 E15.0474
G1 X187.279 Y147.921 E15.07841
G1 X187.015 Y148.319 E15.10939
G1 X186.689 Y148.668 E15.14036
G1 X186.308 Y148.957 E15.17138
G1 X185.885 Y149.179 E15.20236
G1 X185.431 Y149.328 E15.23335
G1 X184.855 Y149.404 E15.27103
G1 X184.352 Y149.468 E15.30392
G1 X183.958 Y149.611 E15.33111
G1 X183.33 Y149.888 E15.37562
G1 X183.233 Y149.91 E15.38207
G1 X183.054 Y150.414 E15.41676
G1 X182.847 Y150.878 E15.44971
G1 X182.746 Y151.406 E15.48458
G1 X182.689 Y151.99 E15.52264
G1 X182.557 Y152.449 E15.55361
G1 X182.35 Y152.88 E15.58462
G1 X182.075 Y153.271 E15.61563
G1 X181.738 Y153.61 E15.64663
G1 X181.349 Y153.888 E15.67764
G1 X180.92 Y154.098 E15.70862
G1 X180.461 Y154.233 E15.73965
G1 X179.884 Y154.292 E15.77726
G1 X161.588 Y154.292 E16.96389
G1 X161.112 Y154.252 E16.99487
G1 X160.649 Y154.133 E17.02588
G1 X160.212 Y153.939 E17.05689
G1 X159.814 Y153.675 E17.08786
G1 X159.465 Y153.348 E17.11888
G1 X159.176 Y152.968 E17.14985
G1 X158.953 Y152.545 E17.18086
G1 X158.805 Y152.091 E17.21183
G1 X158.73 Y151.536 E17.24815
G1 X158.658 Y150.99 E17.28387
G1 X158.427 Y150.433 E17.32298
G1 X158.225 Y149.903 E17.35977
G1 X157.705 Y149.709 E17.39576
G1 X157.255 Y149.508 E17.42773
G1 X156.732 Y149.407 E17.46228
G1 X156.142 Y149.35 E17.50072
G1 X155.683 Y149.218 E17.5317
G1 X155.252 Y149.011 E17.56271
G1 X154.862 Y148.735 E17.59369
G1 X154.523 Y148.398 E17.6247
G1 X154.245 Y148.01 E17.65565
G1 X154.035 Y147.58 E17.68669
G1 X153.9 Y147.122 E17.71766
G1 X153.856 Y146.69 E17.74582
G1 X153.607 Y146.821 E17.76407
G1 X153.153 Y146.97 E17.79506
G1 X152.577 Y147.046 E17.83274
G1 X152.081 Y147.109 E17.86517
G1 X151.676 Y147.255 E17.89309
G1 X151.045 Y147.531 E17.93776
G1 X150.957 Y147.55 E17.9436
G1 X150.777 Y148.056 E17.97843
G1 X150.572 Y148.515 E18.01103
G1 X150.468 Y149.062 E18.04715
G1 X150.408 Y149.646 E18.08522
G1 X150.274 Y150.104 E18.11617
G1 X150.065 Y150.534 E18.14718
G1 X149.788 Y150.923 E18.17815
G1 X149.449 Y151.261 E18.2092
G1 X149.059 Y151.537 E18.24019
G1 X148.629 Y151.745 E18.27117
G1 X148.17 Y151.878 E18.30216
G1 X147.606 Y151.934 E18.33892
G1 X129.31 Y151.934 E19.52555
G1 X128.834 Y151.894 E19.55653
G1 X128.371 Y151.775 E19.58754
G1 X127.934 Y151.581 E19.61855
G1 X127.536 Y151.317 E19.64952
G1 X127.187 Y150.99 E19.68054
G1 X126.898 Y150.61 E19.7115
G1 X126.675 Y150.187 E19.74252
G1 X126.527 Y149.733 E19.77349
G1 X126.451 Y149.165 E19.81066
G1 X126.383 Y148.639 E19.84505
G1 X126.149 Y148.075 E19.88466
G1 X125.945 Y147.537 E19.92197
G1 X125.434 Y147.354 E19.95718
G1 X124.978 Y147.15 E19.98958
G1 X124.457 Y147.049 E20.024
G1 X123.865 Y146.992 E20.06257
G1 X123.406 Y146.86 E20.09355
G1 X122.975 Y146.653 E20.12456
G1 X122.584 Y146.378 E20.15556
G1 X122.245 Y146.041 E20.18656
G1 X121.967 Y145.652 E20.21757
G1 X121.757 Y145.223 E20.24855
G1 X121.622 Y144.764 E20.27958
G1 X121.563 Y144.187 E20.3172
G1 X121.563 Y140.184 E20.57682
G1 X121.159 Y140.332 E20.60473
G1 X120.974 Y140.847 E20.64022
G1 X120.769 Y141.307 E20.67288
G1 X120.67 Y141.84 E20.70804
G1 X120.61 Y142.427 E20.74631
G1 X120.476 Y142.886 E20.77732
G1 X120.267 Y143.316 E20.80833
G1 X119.989 Y143.705 E20.83934
G1 X119.651 Y144.042 E20.8703
G1 X119.261 Y144.318 E20.90129
G1 X118.83 Y144.526 E20.93232
G1 X118.371 Y144.659 E20.96332
G1 X117.808 Y144.715 E21.00001
G1 X99.512 Y144.715 E22.18664
G1 X99.036 Y144.675 E22.21762
G1 X98.573 Y144.556 E22.24863
G1 X98.136 Y144.362 E22.27964
G1 X97.738 Y144.098 E22.31061
G1 X97.389 Y143.771 E22.34163
G1 X97.1 Y143.391 E22.3726
G1 X96.877 Y142.968 E22.40361
G1 X96.729 Y142.514 E22.43458
G1 X96.653 Y141.938 E22.47226
G1 X96.586 Y141.432 E22.50536
G1 X96.446 Y141.043 E22.53218
G1 X96.168 Y140.413 E22.57684
G1 X96.147 Y140.318 E22.58315
G1 X95.643 Y140.139 E22.61784
G1 X95.179 Y139.932 E22.65079
G1 X94.635 Y139.83 E22.68669
G1 X94.053 Y139.77 E22.72464
G1 X93.595 Y139.636 E22.75559
G1 X93.165 Y139.427 E22.78659
G1 X92.776 Y139.15 E22.81757
G1 X92.438 Y138.811 E22.84861
G1 X92.162 Y138.421 E22.8796
G1 X91.954 Y137.991 E22.91058
G1 X91.821 Y137.532 E22.94158
G1 X91.765 Y136.968 E22.97833
G1 X91.765 Y118.672 E24.16496
G1 X91.805 Y118.196 E24.19594
G1 X91.924 Y117.733 E24.22695
G1 X92.118 Y117.296 E24.25796
G1 X92.382 Y116.898 E24.28893
G1 X92.709 Y116.549 E24.31995
G1 X93.089 Y116.26 E24.35092
G1 X93.512 Y116.037 E24.38193
G1 X93.966 Y115.889 E24.4129
G1 X94.534 Y115.813 E24.45007
G1 X95.053 Y115.746 E24.48401
G1 X95.632 Y115.508 E24.52461
G1 X96.153 Y115.31 E24.56076
G1 X96.282 Y114.934 E24.58654
G1 X95.356 Y114.894 E24.64665
G1 X94.893 Y114.775 E24.67766
G1 X94.456 Y114.581 E24.70867
G1 X94.058 Y114.317 E24.73964
G1 X93.709 Y113.99 E24.77066
G1 X93.42 Y113.61 E24.80163
G1 X93.197 Y113.187 E24.83264
G1 X93.049 Y112.733 E24.86361
G1 X92.974 Y112.178 E24.89993
G1 X92.904 Y111.638 E24.93525
G1 X92.667 Y111.067 E24.97535
G1 X92.469 Y110.545 E25.01155
G1 X91.949 Y110.351 E25.04755
G1 X91.499 Y110.15 E25.07952
G1 X90.976 Y110.049 E25.11406
G1 X90.386 Y109.992 E25.15251
G1 X89.927 Y109.86 E25.18348
G1 X89.496 Y109.653 E25.21449
G1 X89.106 Y109.377 E25.24548
G1 X88.767 Y109.04 E25.27648
G1 X88.489 Y108.652 E25.30744
G1 X88.279 Y108.222 E25.33848
G1 X88.144 Y107.764 E25.36945
G1 X88.085 Y107.187 E25.40706
G1 X88.085 Y88.89 E26.59376
G1 X88.125 Y88.414 E26.62474
G1 X88.244 Y87.951 E26.65574
G1 X88.438 Y87.514 E26.68675
G1 X88.702 Y87.116 E26.71773
G1 X89.029 Y86.767 E26.74875
M204 S1000
M205 X18.18 Y18.18
G0 F5142.9 X89.536 Y87.021
M204 S334
M205 X10 Y10
G1 F6000 X89.904 Y86.794 E26.77679
G1 X90.307 Y86.639 E26.80479
G1 X90.877 Y86.551 E26.8422
G1 X91.502 Y86.468 E26.88309
G1 X91.98 Y86.294 E26.91608
G1 X92.59 Y86.029 E26.95922
G1 X92.902 Y85.969 E26.97982
G1 X92.999 Y85.558 E27.00721
G1 X93.245 Y85.015 E27.04588
G1 X93.415 Y84.532 E27.07909
G1 X93.493 Y83.924 E27.11884
G1 X93.548 Y83.495 E27.14689
G1 X93.68 Y83.083 E27.17495
G1 X93.886 Y82.703 E27.20299
G1 X94.158 Y82.368 E27.23097
G1 X94.488 Y82.088 E27.25904
G1 X94.863 Y81.873 E27.28708
G1 X95.271 Y81.731 E27.3151
G1 X95.832 Y81.663 E27.35175
G1 X114.128 Y81.663 E28.53838
G1 X114.558 Y81.703 E28.56639
G1 X114.974 Y81.821 E28.59443
G1 X115.361 Y82.014 E28.62248
G1 X115.706 Y82.275 E28.65054
G1 X115.997 Y82.594 E28.67854
G1 X116.224 Y82.962 E28.70658
G1 X116.379 Y83.365 E28.73459
G1 X116.467 Y83.928 E28.77155
G1 X116.547 Y84.55 E28.81222
G1 X116.72 Y85.03 E28.84531
G1 X116.988 Y85.647 E28.88894
G1 X117.049 Y85.961 E28.90969
G1 X117.458 Y86.057 E28.93693
G1 X118.003 Y86.305 E28.97577
G1 X118.467 Y86.47 E29.00771
G1 X119.083 Y86.551 E29.048
G1 X119.512 Y86.603 E29.07603
G1 X119.924 Y86.734 E29.10407
G1 X120.305 Y86.938 E29.1321
G1 X120.642 Y87.208 E29.16011
G1 X120.924 Y87.536 E29.18816
G1 X121.14 Y87.911 E29.21623
G1 X121.284 Y88.318 E29.24423
G1 X121.355 Y88.89 E29.28161
G1 X121.355 Y93.635 E29.58936
G1 X121.783 Y93.476 E29.61897
G1 X122.383 Y93.213 E29.66146
G1 X122.703 Y93.15 E29.68262
G1 X122.801 Y92.739 E29.71002
G1 X123.044 Y92.206 E29.74801
G1 X123.213 Y91.733 E29.78059
G1 X123.294 Y91.117 E29.82088
G1 X123.346 Y90.688 E29.84891
G1 X123.477 Y90.276 E29.87695
G1 X123.599 Y90.048 E29.89372
G1 X123.521 Y89.548 E29.92654
G1 X123.475 Y89.078 E29.95717
G1 X123.331 Y88.591 E29.99011
G1 X123.001 Y87.837 E30.04349
G1 X122.937 Y87.516 E30.06472
G1 X122.527 Y87.418 E30.09206
G1 X122 Y87.178 E30.12962
G1 X121.521 Y87.007 E30.1626
G1 X120.905 Y86.926 E30.2029
G1 X120.476 Y86.874 E30.23093
G1 X120.064 Y86.743 E30.25897
G1 X119.683 Y86.539 E30.287
G1 X119.346 Y86.269 E30.315
G1 X119.064 Y85.941 E30.34306
G1 X118.848 Y85.566 E30.37113
G1 X118.704 Y85.159 E30.39913
G1 X118.633 Y84.587 E30.43651
G1 X118.633 Y66.29 E31.6232
G1 X118.673 Y65.86 E31.65121
G1 X118.791 Y65.444 E31.67926
G1 X118.984 Y65.057 E31.7073
G1 X119.245 Y64.712 E31.73536
G1 X119.564 Y64.421 E31.76337
G1 X119.932 Y64.194 E31.79141
G1 X120.335 Y64.039 E31.81941
G1 X120.905 Y63.951 E31.85682
G1 X121.521 Y63.87 E31.89712
G1 X122.019 Y63.689 E31.93148
G1 X122.61 Y63.431 E31.97331
G1 X122.93 Y63.368 E31.99446
G1 X123.026 Y62.961 E32.02158
G1 X123.264 Y62.438 E32.05885
G1 X123.45 Y61.918 E32.09467
G1 X123.521 Y61.335 E32.13276
G1 X123.573 Y60.906 E32.16078
G1 X123.704 Y60.494 E32.18882
G1 X123.908 Y60.113 E32.21685
G1 X124.178 Y59.776 E32.24486
G1 X124.506 Y59.494 E32.27291
G1 X124.881 Y59.278 E32.30098
G1 X125.288 Y59.134 E32.32898
G1 X125.86 Y59.063 E32.36637
G1 X144.156 Y59.063 E33.55299
G1 X144.586 Y59.103 E33.581
G1 X145.002 Y59.221 E33.60905
G1 X145.389 Y59.414 E33.6371
G1 X145.734 Y59.675 E33.66515
G1 X146.025 Y59.994 E33.69316
G1 X146.252 Y60.362 E33.7212
G1 X146.407 Y60.765 E33.74921
G1 X146.494 Y61.318 E33.78551
G1 X146.538 Y61.781 E33.81568
G1 X146.68 Y62.273 E33.84889
G1 X147.018 Y63.049 E33.90379
G1 X147.078 Y63.36 E33.92433
G1 X147.489 Y63.458 E33.95173
G1 X148.004 Y63.692 E33.98842
G1 X148.486 Y63.868 E34.0217
G1 X149.111 Y63.951 E34.06259
G1 X149.627 Y64.031 E34.09646
G1 X150.135 Y63.811 E34.13236
G1 X150.705 Y63.723 E34.16977
G1 X151.314 Y63.643 E34.20961
G1 X151.813 Y63.464 E34.24399
G1 X152.412 Y63.202 E34.28639
G1 X152.731 Y63.139 E34.30748
G1 X152.828 Y62.729 E34.33481
G1 X153.072 Y62.193 E34.373
G1 X153.243 Y61.708 E34.40636
G1 X153.321 Y61.107 E34.44566
G1 X153.373 Y60.678 E34.47369
